icons/fill-ele-office-s-platform-monitor.svg

<svg xmlns="http://www.w3.org/2000/svg" width="32px" height="32px" viewBox="0 0 32 32" version="1.1">
    <title>fill-ele-office-s-platform-monitor</title>
    <g id="fill-ele-office-s-platform-monitor" stroke-width="1" fill-rule="evenodd">
        <path d="M9,28 C8.44771525,28 8,27.5522847 8,27 C8,26.4477153 8.44771525,26 9,26 L14,26 L14,24 L18,24 L18,26 L23,26 C23.5522847,26 24,26.4477153 24,27 C24,27.5522847 23.5522847,28 23,28 L9,28 Z M3,4 L29,4 C29.5522847,4 30,4.44771525 30,5 L30,21 C30,21.5522847 29.5522847,22 29,22 L3,22 C2.44771525,22 2,21.5522847 2,21 L2,5 C2,4.44771525 2.44771525,4 3,4 Z" id="&#24418;&#29366;" />
    </g>
</svg>

<svg xmlns="http://www.w3.org/2000/svg" viewBox="0 0 32 32"><path fill="currentColor" d="M9 28a1 1 0 0 1 0-2h5v-2h4v2h5a1 1 0 0 1 0 2zM3 4h26a1 1 0 0 1 1 1v16a1 1 0 0 1-1 1H3a1 1 0 0 1-1-1V5a1 1 0 0 1 1-1"/></svg>
